X: 1
T: Jack Daniel's Reel
M: 4/4
L: 1/8
C: John Morris Rankin
S: Page from Concord Slow Scottish Session collection "Arr. Troy MacGillivray, Aud 06"
B: BSFC Session Tune Book 2016 p.17 #1
S: Barbara McOwen (11/02,8/06)
D: K.Frasur & T.MacGillivray BH06
R: Reel
K: A
e |\
"A"a2ea f{g}aec | Acaf e2ce | "D"fd d/d/d d2df | "A"ec c/c/c "E7"cBBe |
"A"a2ea f{g}aec | Acaf e2ce | "D"f2ec "A"e2fe | "E7"c2Bd "A"cAA :|
|: f |\
"A"ecBc AcBc | Acaf e2ce | "D"fdcd Adcd | "Bm"ABde "E7"fe e/e/e |
"A"fece Bece | Acaf e2ce | "D"f2ec "A"e2fe | "E7"c2Bd "A"cAA :| [a2A2]
